X: 7449
T: Clumsy Lover, The
R: reel
M: 4/4
K: Amajor
|:ceef ecBA|dfff =gfed|ceef ecBA|dBBA B2d2|
ceef ecBA|dfff =gfed|ceec dAGA|BAAG A4:|
|:ceea aeec|deea aeed|ceea aeec|dBBA B2d2|
ceea aeec|deea aeed|ceec dAGA|BAAG A4:|
|:ceec ecec|dfff =gfed|ceec ecec|dBBA B2d2|
ceec ecec|dfff =gfed|ceec dAGA|BAAG A4:|
|:caac acac|daad adad|caac acac|Bece deBe|
caac acac|daad adad|ceec dAGA|BAAG A4:|

